X:55
T:Hospitality Hornpipe
M:C|
L:1/8
C:© Paul Gitlitz 1984
R:Hornpipe
B:Giblitz Fancy, 141 Brand New Old Time Fiddle Tunes Vol. 2
N:The Williams always have a full house at Folklife time.
K:D
FG|"D"Acde "F#m"fdAF|"G"G2E2"Em"E2ed|"A"cdef "A7"gecA|"D"dAcA "Bm"BAFG|!
"D"Acde "F#m"fdAF|"G"G2E2"Em"E2ed|"A"cdef "A7"(3gfe ce|"D"d2D2D2:|!
|:ag|"D"fdec "Bm"dBAF|"G"G2E2"Em"E2ed|"A"cded cded|"A7"cdecA2ag|!
"D"fdec "Bm"dBAF|"G"G2E2"Em"E2ed|"A"cdef "A7"(3gfe ce|"D"d2D2D2:|]
